resources/svg/currency.svg

<svg xmlns="http://www.w3.org/2000/svg" viewBox="0 0 24 24" fill="currentColor"><path fill="none" stroke="currentColor" stroke-width="2" d="M1,5 L23,5 L23,19 L1,19 L1,5 Z M2,9 L2,9 C3.65685425,9 5,7.65685425 5,6 M2,15 L2,15 C3.65685425,15 5,16.3431458 5,18 M22,9 L22,9 C20.3431458,9 19,7.65685425 19,6 M22,15 L22,15 C20.3431458,15 19,16.3431458 19,18 M12,16 C13.6568542,16 15,14.209139 15,12 C15,9.790861 13.6568542,8 12,8 C10.3431458,8 9,9.790861 9,12 C9,14.209139 10.3431458,16 12,16 Z"/></svg>

<svg viewBox="0 0 24 24"><path fill="none" stroke="currentColor" stroke-width="2" d="M1 5h22v14H1V5zm1 4h0a3 3 0 0 0 3-3m-3 9h0a3 3 0 0 1 3 3m17-9h0a3 3 0 0 1-3-3m3 9h0a3 3 0 0 0-3 3m-7-2c1.657 0 3-1.79 3-4s-1.343-4-3-4s-3 1.79-3 4s1.343 4 3 4z"/></svg>
